icons/media/go-forward-plus-24.svg

<svg width="24" height="24" viewBox="0 0 24 24" fill="none" xmlns="http://www.w3.org/2000/svg">
<path d="M10.411 0.580996C10.6631 0.453244 10.9656 0.478064 11.1935 0.6452L14.9435 3.3952C15.1362 3.53648 15.25 3.7611 15.25 4C15.25 4.23891 15.1362 4.46353 14.9435 4.60481L11.1935 7.35481C10.9656 7.52194 10.6631 7.54676 10.411 7.41901C10.1589 7.29126 10 7.03263 10 6.75V4.73663C6.27063 5.63603 3.5 8.99446 3.5 13C3.5 17.6944 7.30558 21.5 12 21.5C16.6944 21.5 20.5 17.6944 20.5 13C20.5 10.6526 19.5494 8.52861 18.0104 6.98959C17.7175 6.6967 17.7175 6.22183 18.0104 5.92893C18.3033 5.63604 18.7782 5.63604 19.0711 5.92893C20.8799 7.73776 22 10.2388 22 13C22 18.5228 17.5228 23 12 23C6.47715 23 2 18.5228 2 13C2 8.16208 5.43552 4.12658 10 3.20004V1.25C10 0.967376 10.1589 0.708748 10.411 0.580996Z" fill="black"/>
<path d="M12 9C12.4142 9 12.75 9.33579 12.75 9.75V12.25H15.25C15.6642 12.25 16 12.5858 16 13C16 13.4142 15.6642 13.75 15.25 13.75H12.75V16.25C12.75 16.6642 12.4142 17 12 17C11.5858 17 11.25 16.6642 11.25 16.25V13.75H8.75C8.33579 13.75 8 13.4142 8 13C8 12.5858 8.33579 12.25 8.75 12.25H11.25V9.75C11.25 9.33579 11.5858 9 12 9Z" fill="black"/>
</svg>

<svg xmlns="http://www.w3.org/2000/svg" width="24" height="24"><path d="M10.411.581a.75.75 0 01.783.064l3.75 2.75a.75.75 0 010 1.21l-3.75 2.75A.75.75 0 0110 6.75V4.737a8.5 8.5 0 108.01 2.253.75.75 0 111.061-1.061A9.971 9.971 0 0122 13c0 5.523-4.477 10-10 10S2 18.523 2 13c0-4.838 3.436-8.873 8-9.8V1.25a.75.75 0 01.411-.669z"/><path d="M12 9a.75.75 0 01.75.75v2.5h2.5a.75.75 0 010 1.5h-2.5v2.5a.75.75 0 01-1.5 0v-2.5h-2.5a.75.75 0 010-1.5h2.5v-2.5A.75.75 0 0112 9z"/></svg>
